build/img/social/instagram.svg

<svg width="14" height="15" viewBox="0 0 14 15" fill="none" xmlns="http://www.w3.org/2000/svg">
<path d="M7 3.40625C8.96875 3.40625 10.5938 5.03125 10.5938 7C10.5938 9 8.96875 10.5938 7 10.5938C5 10.5938 3.40625 9 3.40625 7C3.40625 5.03125 5 3.40625 7 3.40625ZM7 9.34375C8.28125 9.34375 9.3125 8.3125 9.3125 7C9.3125 5.71875 8.28125 4.6875 7 4.6875C5.6875 4.6875 4.65625 5.71875 4.65625 7C4.65625 8.3125 5.71875 9.34375 7 9.34375ZM11.5625 3.28125C11.5625 3.75 11.1875 4.125 10.7188 4.125C10.25 4.125 9.875 3.75 9.875 3.28125C9.875 2.8125 10.25 2.4375 10.7188 2.4375C11.1875 2.4375 11.5625 2.8125 11.5625 3.28125ZM13.9375 4.125C14 5.28125 14 8.75 13.9375 9.90625C13.875 11.0312 13.625 12 12.8125 12.8438C12 13.6562 11 13.9062 9.875 13.9688C8.71875 14.0312 5.25 14.0312 4.09375 13.9688C2.96875 13.9062 2 13.6562 1.15625 12.8438C0.34375 12 0.09375 11.0312 0.03125 9.90625C-0.03125 8.75 -0.03125 5.28125 0.03125 4.125C0.09375 3 0.34375 2 1.15625 1.1875C2 0.375 2.96875 0.125 4.09375 0.0625C5.25 0 8.71875 0 9.875 0.0625C11 0.125 12 0.375 12.8125 1.1875C13.625 2 13.875 3 13.9375 4.125ZM12.4375 11.125C12.8125 10.2188 12.7188 8.03125 12.7188 7C12.7188 6 12.8125 3.8125 12.4375 2.875C12.1875 2.28125 11.7188 1.78125 11.125 1.5625C10.1875 1.1875 8 1.28125 7 1.28125C5.96875 1.28125 3.78125 1.1875 2.875 1.5625C2.25 1.8125 1.78125 2.28125 1.53125 2.875C1.15625 3.8125 1.25 6 1.25 7C1.25 8.03125 1.15625 10.2188 1.53125 11.125C1.78125 11.75 2.25 12.2188 2.875 12.4688C3.78125 12.8438 5.96875 12.75 7 12.75C8 12.75 10.1875 12.8438 11.125 12.4688C11.7188 12.2188 12.2188 11.75 12.4375 11.125Z" fill="#707070"/>
</svg>

<svg width="14" height="15" fill="none" xmlns="http://www.w3.org/2000/svg"><path d="M7 3.406c1.969 0 3.594 1.625 3.594 3.594 0 2-1.625 3.594-3.594 3.594C5 10.594 3.406 9 3.406 7A3.594 3.594 0 017 3.406zm0 5.938c1.281 0 2.313-1.031 2.313-2.344A2.307 2.307 0 007 4.687C5.687 4.688 4.656 5.72 4.656 7A2.34 2.34 0 007 9.344zm4.563-6.063a.84.84 0 01-.844.844.84.84 0 01-.844-.844.84.84 0 01.844-.844.84.84 0 01.844.844zm2.374.844c.063 1.156.063 4.625 0 5.781-.062 1.125-.312 2.094-1.124 2.938-.813.812-1.813 1.062-2.938 1.125-1.156.062-4.625.062-5.781 0-1.125-.063-2.094-.313-2.938-1.125C.344 12 .094 11.03.031 9.906-.03 8.75-.03 5.281.031 4.125.094 3 .344 2 1.156 1.187 2 .375 2.97.125 4.094.063 5.25 0 8.719 0 9.875.063 11 .126 12 .376 12.813 1.188 13.624 2 13.874 3 13.937 4.126zm-1.5 7c.376-.906.282-3.094.282-4.125 0-1 .094-3.188-.281-4.125-.25-.594-.72-1.094-1.313-1.313C10.187 1.188 8 1.282 7 1.282c-1.031 0-3.219-.095-4.125.28a2.41 2.41 0 00-1.344 1.313C1.156 3.813 1.25 6 1.25 7c0 1.031-.094 3.219.281 4.125a2.37 2.37 0 001.344 1.344c.906.375 3.094.281 4.125.281 1 0 3.188.094 4.125-.281.594-.25 1.094-.719 1.313-1.344z" fill="#707070"/></svg>
